X:1
T: Denis Murphy's
Z: Atk
S: https://thesession.org/tunes/357#setting357
R: polka
M: 2/4
L: 1/8
K: Dmaj
f/g/f/e/ d>B|AD FA|GE e>d|cB (3BcB A|
f/g/f/e/ d>B|AD FA|GE e>f|1 ed d2:|2 ed dB||
|:Af f/e/f|Ag g/f/g|Af f/e/g|e/f/e/d/ BA|
Af f/e/f|Ag ga|ba gc|1 dd B2:|2 ed d2||

